src/assets/svgicons/gruop-ua-hoodi.svg

<svg width="60" height="63" viewBox="0 0 60 63" fill="none" xmlns="http://www.w3.org/2000/svg">
<g clip-path="url(#clip0_1108_270)">
<path d="M58.8156 35.6937C57.5938 25.4062 55.1516 17.5328 51.35 13.0188C51.0781 12.8094 49.45 11.3391 48.9063 10.8141C48.7703 10.7094 48.6203 10.6328 48.4641 10.5813C47.0906 9.54688 45.8359 8.79844 44.6984 8.50469C44.8344 7.35 44.4266 5.98594 43.4766 4.725C41.4422 1.78437 36.9625 0 29.9047 0C22.8469 0 18.3672 1.78437 16.3313 4.72344C15.3813 5.98281 14.9734 7.34844 14.9734 8.50312C13.8875 8.81875 12.6656 9.55312 11.0375 10.8125C10.4953 11.3375 9.81563 11.7578 9.27344 12.2828C9.00157 12.5984 8.73126 12.8078 8.59532 12.9125C4.79376 17.5312 2.35157 25.4047 1.12969 35.6937C0.0437566 43.8813 -0.0921809 52.4906 0.0437566 60.0484V61.9375C0.0437566 62.4625 0.721882 62.9875 1.40157 62.9875H6.82969C7.37188 62.9875 7.91563 62.7781 8.05157 62.3578L11.6094 55.7156C11.8203 55.8687 12.0375 56.0156 12.2594 56.1578V60.8875C12.2594 62.0422 13.4813 62.9875 14.9734 62.9875H44.8344C46.3281 62.9875 47.5484 62.0422 47.5484 60.8875V56.2422C47.8172 56.0734 48.0797 55.8984 48.3344 55.7141L51.1984 61.0594L51.7578 62.3562C52.0297 62.7766 52.4359 62.9859 52.9797 62.9859H58.5453C59.2234 62.9859 59.9031 62.5656 59.9031 61.9359V60.0469C60.175 52.4891 59.9031 43.8797 58.8172 35.6922L58.8156 35.6937ZM6.01563 60.8891H2.89376V57.7391H7.72344L6.01563 60.8891ZM9.54532 21.5219C9.28282 27.0016 9.13438 33.3531 9.20626 40.6328C9.23126 44.9234 9.33907 49.5078 9.54532 54.3813L8.86251 55.6406H2.79844C2.75157 49.3094 3.07501 42.4359 3.84376 35.9047C5.04688 26.7047 7.03907 19.4422 10.0813 15.1109C9.86094 16.9625 9.65626 19.1 9.54532 21.5219ZM44.8359 60.8891H14.9734V57.5406C15.4828 57.7406 16.0063 57.9188 16.5422 58.0719C16.5547 58.075 16.5656 58.0781 16.5781 58.0828C16.7 58.1172 16.8234 58.1516 16.9469 58.1828C16.9625 58.1875 16.9781 58.1906 16.9938 58.1953C18.5031 58.5844 20.1078 58.7891 21.7609 58.7891H38.1844C40.5469 58.7891 42.8078 58.3734 44.8359 57.5938V60.8875V60.8891ZM47.6859 53.1203C45.8375 54.9703 43.2047 56.1469 40.3453 56.5406C40.2938 56.5469 40.2422 56.5547 40.1906 56.5609C40.1281 56.5687 40.0641 56.5766 40 56.5828C39.9063 56.5938 39.8125 56.6031 39.7203 56.6125C39.6781 56.6172 39.6359 56.6203 39.5938 56.625C39.4531 56.6375 39.3125 56.6484 39.1719 56.6562C39.1453 56.6578 39.1172 56.6594 39.0906 56.6609C38.9703 56.6672 38.85 56.6734 38.7313 56.6766C38.6938 56.6766 38.6563 56.6797 38.6172 56.6797C38.4734 56.6844 38.3281 56.6859 38.1828 56.6859H21.7594C21.6141 56.6859 21.4703 56.6828 21.325 56.6797C21.2891 56.6797 21.2516 56.6781 21.2156 56.6766C21.0875 56.6719 20.9594 56.6672 20.8313 56.6594C20.8141 56.6594 20.7969 56.6578 20.7813 56.6562C20.6281 56.6469 20.475 56.6344 20.3219 56.6203C20.3125 56.6203 20.3031 56.6188 20.2938 56.6172C20.1406 56.6031 19.9875 56.5859 19.8344 56.5672H19.8313C18.5563 56.4094 17.3078 56.0953 16.1344 55.625C16.1281 55.6219 16.1219 55.6203 16.1172 55.6172C16.0031 55.5719 15.8906 55.5234 15.7781 55.4734C15.7281 55.4516 15.6781 55.4297 15.6281 55.4078C15.5906 55.3906 15.5547 55.3734 15.5188 55.3563C14.2859 54.7828 13.1766 54.0328 12.2609 53.1156C12.0313 47.7578 11.9234 42.8125 11.9156 38.2531C11.9266 32.2625 12.1 26.8922 12.3969 22.1469C12.6438 17.3656 13.1172 13.6312 13.4031 12.1297C14.3281 11.4172 15.1219 10.9062 15.6109 10.6953C15.9578 11.1687 16.4344 11.7031 17.0125 12.2781C18.6406 13.8531 20.6766 14.7969 23.1203 14.7969C23.9344 14.7969 24.4781 14.3766 24.4781 13.7469C24.4781 13.1172 23.9359 12.6969 23.1203 12.6969C21.6266 12.6969 20.2703 12.0672 19.0484 11.0172C18.6406 10.5969 18.2344 10.1766 17.9625 9.75781C17.7891 9.48906 17.7266 9.30781 17.6688 9.18281C17.6 8.1 17.8875 6.94219 18.6422 5.87344C20.2703 3.45938 23.8 2.09375 29.9078 2.09375C36.0156 2.09375 39.5453 3.45781 41.1734 5.76875C41.9875 6.92344 42.2594 8.18281 42.1234 9.23281C42.1234 9.23906 42.1234 9.24375 42.1219 9.25C41.8172 9.67969 41.0844 10.5844 40.7656 10.9125C39.5438 11.9625 38.1875 12.5922 36.6938 12.5922C35.8797 12.5922 35.3359 13.0125 35.3359 13.6422C35.3359 14.2719 35.8781 14.6922 36.6938 14.6922C39.1375 14.6922 41.1734 13.7469 42.8016 12.1734C43.3922 11.6516 43.8766 11.0891 44.225 10.5875C44.7625 10.8016 45.6484 11.3297 46.6016 12.0687C46.6016 12.1734 46.7375 13.3281 46.8734 14.0641C47.1453 16.0594 47.4156 18.5781 47.5516 21.5172C48.0938 29.9156 48.2297 40.4141 47.6875 53.1156L47.6859 53.1203ZM57.0516 60.1547V60.8891H53.9297L52.3016 57.7391H57.1188C57.1031 58.5531 57.0813 59.3594 57.0531 60.1531L57.0516 60.1547ZM57.1469 55.7453H50.9484L50.2656 54.4859C50.2766 54.2891 50.2859 54.0922 50.2953 53.8969C50.3578 53.7781 50.4016 53.6609 50.4016 53.5422C50.9438 40.6297 50.8094 30.0266 50.2656 21.4188C50.1547 18.9453 49.9547 16.8172 49.7391 15.0375C52.8516 19.2406 54.8828 26.5797 56.1016 36.0109C56.8703 42.5563 57.1953 49.3766 57.1469 55.7469V55.7453Z" fill="#F6F6F6"/>
<path d="M27.8687 12.597H31.9406C32.7546 12.597 33.5687 12.2813 34.1124 11.8626L37.3702 8.60791C38.7281 7.24385 37.5062 5.24854 35.1984 5.24854H24.6109C22.3031 5.24854 21.0812 7.24385 22.439 8.60791L25.6968 11.7579C26.239 12.2829 27.0546 12.597 27.8687 12.597ZM35.1984 7.34854L31.9406 10.4985H27.8687L24.6109 7.34854H35.1984Z" fill="#F6F6F6"/>
<path d="M17.6905 24.803C18.3952 25.1186 19.1374 24.9671 19.5452 24.4218L24.9968 17.1593C25.4062 16.6139 25.2093 16.0405 24.5046 15.7249C23.7999 15.4093 23.0577 15.5608 22.6499 16.1061L17.1983 23.3686C16.789 23.9139 16.9858 24.4874 17.6905 24.803Z" fill="#F6F6F6"/>
<path d="M33.9766 14.697C33.3641 15.1111 33.3125 15.7048 33.8485 16.1783L40.9954 22.5017C41.5313 22.9751 42.2969 23.0158 42.911 22.6017C43.5235 22.1876 43.575 21.5939 43.0391 21.1204L35.8922 14.797C35.3563 14.3236 34.5907 14.2829 33.9766 14.697Z" fill="#F6F6F6"/>
<path d="M43.4782 48.2908C40.6282 48.2908 38.0485 45.5611 38.0485 41.9924C38.0485 41.3627 37.5063 40.9424 36.6907 40.9424H23.1172C22.3032 40.9424 21.7594 41.3627 21.7594 41.9924C21.7594 45.5611 19.1813 48.2908 16.3297 48.2908C15.5157 48.2908 14.9719 48.7111 14.9719 49.3408V53.5408C14.9719 54.1705 15.5141 54.5908 16.3297 54.5908H43.4766C44.2907 54.5908 44.8344 54.1705 44.8344 53.5408V49.3424C44.8344 48.7127 44.2922 48.2924 43.4766 48.2924L43.4782 48.2908ZM42.1204 52.4908H17.6891V50.2861C21.2188 49.6564 23.9329 46.7174 24.4766 43.0424H35.3344C35.8766 46.7174 38.5922 49.6564 42.1219 50.2861V52.4908H42.1204Z" fill="#F6F6F6"/>
<path d="M39.9564 30.3859L40.111 30.3172C41.6532 29.589 41.4939 28.75 41.172 27.8812C41.0595 27.5765 40.9517 27.2906 40.961 26.9703C40.9751 26.4562 40.8454 26.0781 40.5657 25.8156C40.1095 25.389 39.4579 25.45 38.7688 25.514C38.1532 25.5718 37.5173 25.6328 37.0048 25.375C36.272 25.0093 35.7001 25.2203 35.2845 25.3734C34.8392 25.5359 34.5204 25.6547 33.8532 25.2406C33.2923 24.8906 33.0814 24.4906 32.8767 24.1062C32.6126 23.6078 32.2814 22.9859 31.2704 22.8968C29.8454 22.7687 29.0235 24.014 28.422 24.9218C27.7579 25.925 27.5814 26.0437 27.3501 25.9093C26.4985 25.4078 25.7985 25.7047 25.3376 25.9031C25.0017 26.0468 24.8501 26.0984 24.6985 26.0375C24.597 25.9968 24.4814 25.9578 24.3595 25.9187C24.3204 25.9078 24.2829 25.8953 24.2423 25.8843C24.1657 25.8625 24.0876 25.8406 24.0048 25.8203C22.9001 25.5484 21.3204 25.4297 20.3251 25.7812C20.3251 25.7812 20.3241 25.7817 20.322 25.7828C20.322 25.7828 20.3079 25.789 20.2985 25.7922C20.0251 25.8922 19.797 26.0297 19.6376 26.2093C19.4845 26.3843 19.3985 26.5859 19.3845 26.8C19.3704 27.0156 19.4251 27.2422 19.5485 27.4672C20.4829 29.15 20.3157 29.8062 19.1501 31.5297C18.3829 32.6625 18.5845 33.3843 18.886 33.7875C19.6642 34.8297 21.8923 34.6593 22.911 34.3375C23.6095 34.1172 24.1032 33.7937 24.5392 33.5078C25.1548 33.1047 25.5251 32.8625 26.222 33.0015C27.4423 33.2468 28.4501 34.4687 28.4501 34.9812C28.3985 35.0609 28.2751 35.214 28.1814 35.3312C27.7532 35.864 27.2173 36.5281 27.3314 37.2234C27.3673 37.4515 27.4954 37.7765 27.8876 38.0281C29.0064 38.7453 30.0579 37.3078 30.9001 36.1515C31.1079 35.8656 31.3985 35.4672 31.597 35.2578C32.047 35.664 32.5501 35.8093 33.0001 35.8468C32.9392 36.0343 32.9173 36.225 32.9454 36.4234C33.0423 37.1203 33.6626 37.575 34.9017 38.4797C35.122 38.6406 35.3767 38.7218 35.6517 38.7218C35.7689 38.7218 35.8907 38.7078 36.0142 38.6765C37.0392 38.4281 38.0235 37.189 38.261 36.7125C38.4564 36.3218 38.3954 36.0156 38.311 35.825C38.0782 35.3078 37.4642 35.1484 36.872 34.9906C36.6892 34.9437 36.4079 34.8687 36.2532 34.7984C36.5048 34.3453 37.2564 33.8218 37.9267 33.3547C38.6751 32.8343 39.3813 32.3422 39.6751 31.7859C39.8267 31.5 39.8126 31.1922 39.7985 30.9234C39.7782 30.4765 39.811 30.4453 39.9579 30.3812L39.9564 30.3859Z" fill="#F6F6F6"/>
</g>
<defs>
<clipPath id="clip0_1108_270">
<rect width="60" height="62.9875" fill="white"/>
</clipPath>
</defs>
</svg>

<svg viewBox="0 0 60 63" xmlns="http://www.w3.org/2000/svg"><g><path d="M58.816 35.694c-1.222-10.288-3.664-18.161-7.466-22.675-.272-.21-1.9-1.68-2.444-2.205a1.5 1.5 0 0 0-.442-.233c-1.373-1.034-2.628-1.783-3.766-2.076.136-1.155-.271-2.52-1.221-3.78C41.442 1.785 36.963 0 29.905 0S18.367 1.784 16.33 4.723c-.95 1.26-1.358 2.625-1.358 3.78-1.086.316-2.307 1.05-3.936 2.31-.542.524-1.221.945-1.764 1.47a4.4 4.4 0 0 1-.678.63C4.794 17.53 2.352 25.405 1.13 35.693.044 43.882-.092 52.492.044 60.049v1.89c0 .524.678 1.05 1.358 1.05H6.83c.542 0 1.086-.21 1.222-.63l3.557-6.642q.317.23.65.442v4.73c0 1.154 1.222 2.1 2.714 2.1h29.861c1.494 0 2.714-.946 2.714-2.1v-4.646q.405-.253.786-.528l2.864 5.345.56 1.297q.407.63 1.222.63h5.565c.678 0 1.358-.42 1.358-1.05v-1.89c.272-7.557 0-16.166-1.086-24.354zm-52.8 25.195H2.894v-3.15h4.83zm3.53-39.367c-.263 5.48-.412 11.831-.34 19.11.025 4.291.133 8.876.34 13.75l-.683 1.259H2.798c-.046-6.332.277-13.205 1.046-19.736 1.203-9.2 3.195-16.463 6.237-20.794a88 88 0 0 0-.536 6.41m35.29 39.367H14.973v-3.348a17 17 0 0 0 1.974.642q.023.007.047.012c1.51.39 3.114.594 4.767.594h16.423c2.363 0 4.624-.416 6.652-1.195v3.295m2.85-7.769c-1.849 1.85-4.481 3.027-7.34 3.42q-.078.011-.155.02l-.191.023-.28.03-.126.012a13 13 0 0 1-.503.036q-.18.01-.36.016-.056.002-.114.003-.216.006-.434.006H21.759q-.217 0-.434-.006l-.11-.003q-.192-.007-.384-.018l-.05-.003a15 15 0 0 1-.947-.089h-.003a14.9 14.9 0 0 1-3.697-.942l-.017-.008a9 9 0 0 1-.339-.144l-.15-.065-.11-.052c-1.232-.573-2.341-1.323-3.257-2.24a362 362 0 0 1-.345-14.863c.01-5.99.184-11.36.48-16.106.248-4.781.721-8.516 1.007-10.017.925-.713 1.719-1.224 2.208-1.435.347.474.823 1.008 1.401 1.583 1.629 1.575 3.665 2.519 6.108 2.519.814 0 1.358-.42 1.358-1.05s-.542-1.05-1.358-1.05c-1.493 0-2.85-.63-4.072-1.68-.407-.42-.814-.84-1.085-1.26-.174-.268-.236-.45-.294-.574-.069-1.083.218-2.24.973-3.31 1.628-2.414 5.158-3.78 11.266-3.78s9.637 1.365 11.265 3.676c.814 1.154 1.086 2.414.95 3.464l-.001.017c-.305.43-1.038 1.334-1.356 1.662-1.222 1.05-2.578 1.68-4.072 1.68-.814 0-1.358.42-1.358 1.05s.542 1.05 1.358 1.05c2.444 0 4.48-.945 6.108-2.519a9 9 0 0 0 1.423-1.585c.538.214 1.423.742 2.377 1.48 0 .105.136 1.26.271 1.996a84 84 0 0 1 .679 7.453c.542 8.399.678 18.897.136 31.599zm9.366 7.035v.734H53.93l-1.628-3.15h4.817q-.024 1.222-.066 2.414zm.095-4.41h-6.199l-.682-1.26.03-.588a.8.8 0 0 0 .106-.355c.542-12.912.407-23.515-.136-32.123a84 84 0 0 0-.527-6.382c3.113 4.204 5.144 11.543 6.363 20.974.768 6.545 1.093 13.366 1.045 19.736z"/><path d="M27.869 12.597h4.072a3.7 3.7 0 0 0 2.171-.734l3.258-3.255c1.358-1.364.136-3.36-2.172-3.36H24.611c-2.308 0-3.53 1.996-2.172 3.36l3.258 3.15c.542.525 1.358.839 2.172.839m7.33-5.248-3.258 3.15h-4.072l-3.258-3.15z"/><path d="M17.69 24.803c.705.316 1.447.164 1.855-.381l5.452-7.263c.41-.545.212-1.118-.492-1.434-.705-.316-1.447-.164-1.855.381l-5.452 7.263c-.409.545-.212 1.118.492 1.434"/><path d="M33.977 14.697c-.613.414-.664 1.008-.128 1.481l7.146 6.324c.536.473 1.302.514 1.916.1.612-.414.664-1.008.128-1.482l-7.147-6.323c-.536-.473-1.301-.514-1.915-.1"/><path d="M43.478 48.29c-2.85 0-5.43-2.729-5.43-6.298 0-.63-.542-1.05-1.357-1.05H23.117c-.814 0-1.358.42-1.358 1.05 0 3.57-2.578 6.299-5.43 6.299-.813 0-1.357.42-1.357 1.05v4.2c0 .63.542 1.05 1.358 1.05h27.147c.814 0 1.357-.42 1.357-1.05v-4.199c0-.63-.542-1.05-1.357-1.05zm-1.358 4.2H17.69v-2.204c3.529-.63 6.243-3.569 6.787-7.244h10.857c.543 3.675 3.258 6.614 6.788 7.244v2.205z"/><path d="m39.956 30.386.155-.069c1.542-.728 1.383-1.567 1.061-2.436-.112-.305-.22-.59-.211-.91.014-.515-.116-.893-.395-1.155-.457-.427-1.108-.366-1.797-.302-.616.058-1.252.119-1.764-.139-.733-.366-1.305-.155-1.72-.002-.446.163-.765.282-1.432-.132-.56-.35-.772-.75-.976-1.135-.264-.498-.596-1.12-1.607-1.21-1.425-.127-2.247 1.118-2.848 2.026-.664 1.003-.84 1.122-1.072.987-.852-.501-1.552-.204-2.012-.006-.336.144-.488.195-.64.135a5 5 0 0 0-.338-.12q-.058-.016-.118-.034a7 7 0 0 0-.237-.064c-1.105-.272-2.685-.39-3.68-.039l-.003.002-.023.01c-.274.1-.502.237-.661.416a1 1 0 0 0-.254.591c-.014.216.041.442.165.667.934 1.683.767 2.34-.399 4.063-.767 1.133-.566 1.854-.264 2.258.778 1.042 3.006.871 4.025.55.698-.22 1.192-.544 1.628-.83.616-.403.986-.646 1.683-.507 1.22.246 2.228 1.468 2.228 1.98-.052.08-.175.233-.269.35-.428.533-.964 1.197-.85 1.892.036.229.164.553.557.805 1.118.717 2.17-.72 3.012-1.876.208-.286.498-.685.697-.894.45.406.953.551 1.403.589-.06.187-.083.378-.055.576.097.697.718 1.152 1.957 2.057.22.16.475.242.75.242q.176.001.362-.046c1.025-.248 2.01-1.487 2.247-1.964.195-.39.134-.696.05-.887-.233-.517-.847-.677-1.439-.834a4.6 4.6 0 0 1-.619-.193c.252-.453 1.003-.976 1.674-1.443.748-.52 1.454-1.013 1.748-1.57.152-.285.138-.593.123-.862-.02-.446.013-.478.16-.542z"/></g></svg>
